X: 21252
T: NARRAGANSET SETT (tune 5)
C:
%R: jig
B: Elias Howe "The Musician's Companion" 1843 p.125 #2
S: http://imslp.org/wiki/The_Musician's_Companion_(Howe,_Elias)
N: Version 2 for ABC software that can handle multiple voices on a staff. (See bar 29.)
Z: 2015 John Chambers <jc:trillian.mit.edu>
M: 6/8
L: 1/8
K: D
% - - - - - - - - - - - - - - - - - - - - - - - - - - - - -
V: 1 name="5"
z |\
d2z d2z | {e}dcd f2z | AGA c2z | ddd d2z |\
B2z B2z | BAB d2z | fed cB^A | B3 z2 H|]
(3(d/d/d/) |\
(dAf) d2(3(d/d/d/) | dAf  d2(3(d/d/d/) | dAf dAf | dAB cde |\
f2f f2f | fef d2z | e2d cBc | d3 "^D.C."z2 |]
f |\
f2e d2d | e2d c2z | e2d cde | fed z2z |\
f2e d2d | g2f e2z | e2d cBc | d3 "^D.C."z2 |]
(3(A/A/A/) |\
AAA A2(3(A/A/A/) | AAA AAA | _B3 A2^G | A3 z2(3(d/d/d/) |\
x3 e2e & dAd dAd | dAd f2z | e2d cBc | d3 "^D.C."z2 |]
% - - - - - - - - - - Dance description - - - - - - - - - -
%%begintext align
%% All chassa across partners,
%% and turn on the corners,
%% all balance corners,
%% turn partners,
%% grand right and left,
%% all balance partners,
%% all chain,
%% all promenade.
%%endtext
% - - - - - - - - - - - - - - - - - - - - - - - - - - - - -
%%sep 1 1 300
